X: 5603
T: Butchers Row
R: hornpipe
M: 4/4
K: Gmajor
dc|:Bc dB G2 gf|ed ef ge dc|Bc dB G2 AB|cB AG A2 dc|
Bc dB G2 gf|ed ef gd ef|gf gd ed cB|1 AG FA G2 dc:|2 AG FA G2 d2||
|:~g3 a b2 b2|~a3g fe d2|ed ef gd Bd|cB AG FE D2|
GF GB AG Ac|BA Bd ed ef|~g3d ed cB|1 AG FA G2 d2:|2 AG FA G2 dc||

